dist/img/box.svg

<svg width="32" height="32" viewBox="0 0 32 32" fill="none" xmlns="http://www.w3.org/2000/svg">
<path d="M29.4689 16.0001C29.4689 23.4317 23.4317 29.4689 16.0001 29.4689C8.56837 29.4689 2.53125 23.4317 2.53125 16.0001C2.53125 8.56837 8.56837 2.53125 16.0001 2.53125C23.4317 2.53125 29.4689 8.56837 29.4689 16.0001V16.0001ZM3.70245 16.0001C3.70245 22.7988 9.20134 28.2977 16.0001 28.2977C22.7988 28.2977 28.2977 22.7988 28.2977 16.0001C28.2977 9.20134 22.7988 3.70245 16.0001 3.70245C9.20134 3.70245 3.70245 9.20134 3.70245 16.0001V16.0001ZM22.2266 12.1845L16.3112 15.8925L16.0001 16.087L9.77348 12.1845L16.0001 8.28203L22.2266 12.1845ZM11.9786 12.1845L16.0001 14.7053L20.0215 12.1845L16.0001 9.66368L11.9786 12.1845ZM15.1468 17.0695L15.4145 17.2433V24.0841L9.55845 20.4241V13.4609L15.1468 17.0695ZM22.4417 20.4241L16.5857 24.0841V17.2433L22.4417 13.4609V20.4241ZM10.7297 19.7744L14.2433 21.9704V17.8815L10.7297 15.6112V19.7744ZM17.7569 17.8815V21.9704L21.2705 19.7744V15.6112L17.7569 17.8815Z" fill="white"/>
</svg>

<svg width="32" height="32" fill="none" xmlns="http://www.w3.org/2000/svg"><path d="M29.469 16c0 7.432-6.037 13.469-13.469 13.469-7.432 0-13.469-6.037-13.469-13.469 0-7.432 6.037-13.469 13.47-13.469 7.43 0 13.468 6.037 13.468 13.47zM3.702 16A12.289 12.289 0 0016 28.298 12.289 12.289 0 0028.298 16 12.289 12.289 0 0016 3.702 12.289 12.289 0 003.702 16zm18.525-3.816l-5.916 3.709-.31.194-6.228-3.902L16 8.281l6.227 3.902zm-10.248 0L16 14.706l4.021-2.52-4.02-2.521-4.022 2.52zm3.168 4.886l.268.173v6.841l-5.857-3.66v-6.963l5.589 3.609zm7.295 3.354l-5.856 3.66v-6.84l5.856-3.783v6.963zm-11.712-.65l3.513 2.196v-4.088l-3.513-2.27v4.162zm7.027-1.893v4.09l3.513-2.197v-4.163l-3.513 2.27z" fill="#fff"/></svg>
